icon-svg/aqara-z1-pro-1.svg

<svg xmlns="http://www.w3.org/2000/svg" viewBox="0 0 24 24"><path fill="#44739e" d="M20.994 2.177H9.6v19.646h11.39A1.006 1.006 0 0 0 22 20.817V3.183a1.006 1.006 0 0 0-1.006-1.006M2 3.183v17.634a1.006 1.006 0 0 0 1.006 1.006h6.213V2.177H3.006A1.006 1.006 0 0 0 2 3.183m3.854 2.523a.289.289 0 1 1-.289.288.29.29 0 0 1 .289-.288m0 .813a.289.289 0 1 1-.289.289.29.29 0 0 1 .289-.289m0 .814a.289.289 0 1 1-.289.288.29.29 0 0 1 .289-.288m0 .813a.289.289 0 1 1-.289.289.29.29 0 0 1 .289-.289m0 .814a.289.289 0 1 1-.289.289.29.29 0 0 1 .289-.289m0 .814a.289.289 0 1 1-.289.288.29.29 0 0 1 .289-.288m0 .813a.289.289 0 1 1-.289.289.29.29 0 0 1 .289-.289m0 .814a.289.289 0 1 1-.289.288.29.29 0 0 1 .289-.289Zm0 .813a.289.289 0 1 1-.289.289.29.29 0 0 1 .289-.289m0 .814a.289.289 0 1 1-.289.289.29.29 0 0 1 .289-.289m0 .814a.289.289 0 1 1-.289.288.29.29 0 0 1 .289-.288m0 .813a.289.289 0 1 1-.289.289.29.29 0 0 1 .289-.289m0 .814a.289.289 0 1 1-.289.288.29.29 0 0 1 .289-.288m0 .814a.288.288 0 1 1-.289.288.29.29 0 0 1 .289-.288m0 .813a.289.289 0 1 1-.289.289.29.29 0 0 1 .289-.285Z"/></svg>

<?xml version="1.0" encoding="UTF-8"?>
<svg width="24px" fill="#44739e" height="24px" viewBox="0 0 24 24" version="1.1" xmlns="http://www.w3.org/2000/svg" xmlns:xlink="http://www.w3.org/1999/xlink">
            <path d="M 20.994,2.177 H 9.6 V 21.823 H 20.99 A 1.006,1.006 0 0 0 22,20.817 V 3.183 A 1.006,1.006 0 0 0 20.994,2.177 Z M 2,3.183 v 17.634 a 1.006,1.006 0 0 0 1.006,1.006 H 9.219 V 2.177 H 3.006 A 1.006,1.006 0 0 0 2,3.183 Z M 5.854,5.706 A 0.289,0.289 0 1 1 5.565,5.994 0.288,0.288 0 0 1 5.854,5.706 Z m 0,0.813 A 0.289,0.289 0 1 1 5.565,6.808 0.288,0.288 0 0 1 5.854,6.519 Z m 0,0.814 A 0.289,0.289 0 1 1 5.565,7.621 0.288,0.288 0 0 1 5.854,7.333 Z m 0,0.813 A 0.289,0.289 0 1 1 5.565,8.435 0.289,0.289 0 0 1 5.854,8.146 Z m 0,0.814 A 0.289,0.289 0 1 1 5.565,9.249 0.288,0.288 0 0 1 5.854,8.96 Z m 0,0.814 A 0.289,0.289 0 1 1 5.565,10.062 0.288,0.288 0 0 1 5.854,9.774 Z m 0,0.813 a 0.289,0.289 0 1 1 -0.289,0.289 0.288,0.288 0 0 1 0.289,-0.289 z m 0,0.814 A 0.289,0.289 0 1 1 5.565,11.689 0.288,0.288 0 0 1 5.854,11.4 Z m 0,0.813 a 0.289,0.289 0 1 1 -0.289,0.289 0.289,0.289 0 0 1 0.289,-0.289 z m 0,0.814 a 0.289,0.289 0 1 1 -0.289,0.289 0.288,0.288 0 0 1 0.289,-0.289 z m 0,0.814 A 0.289,0.289 0 1 1 5.565,14.13 0.288,0.288 0 0 1 5.854,13.842 Z m 0,0.813 a 0.289,0.289 0 1 1 -0.289,0.289 0.288,0.288 0 0 1 0.289,-0.289 z m 0,0.814 a 0.289,0.289 0 1 1 -0.289,0.288 0.288,0.288 0 0 1 0.289,-0.288 z m 0,0.814 a 0.288,0.288 0 1 1 -0.289,0.288 0.288,0.288 0 0 1 0.289,-0.288 z m 0,0.813 A 0.289,0.289 0 1 1 5.565,17.385 0.288,0.288 0 0 1 5.854,17.1 Z"/>

</svg>
